X: 28708
T: My Darling Asleep
R: jig
M: 6/8
K: Dmajor
|e|:fdd cAA|BAG A2G|FAA def|gfg eag|
fdd cAA|BAG A2G|FAA def|1 gec d2e:|2 gec d2 A||
FAA ABA|FAA BAG|FAA def|gfg eag|
fdd cAA|BAG A2G|FAA def|1 gec d2A:|2 gec d3||

